X:1
T:Title
%%score { ( 1 3 4 ) | ( 2 5 ) }
L:1/8
Q:1/4=100
M:4/4
K:D
V:1 treble nm="Grand Piano"
V:3 treble 
V:4 treble 
V:2 bass 
V:5 bass 
V:1
 [DF]2 [DF]2 [DF][CE][DF][EG] | z4 [FA]4[K:bass] | [CGc]6 z2 | [DF]6 z2 | %4
w: Winnie~M.~Gabrielson * * * * *||||
 [A,DF]2 [A,DF]2 [DF][CE][DF][EG] | [FA]2 [Fd]2 [FA]2 [FA][=FB] | [Ec]4 B4 | [CEA]6[K:bass] z2 | %8
w: ||||
 [A,DF]4 [A,DF]4 | .F2 .F2 z4 | [Ge]4 z4 | [DF]6 z2 | [A,DF]4 [A,CG]4 | %13
w: |||||
 .A2 E2 z4[Q:1/4=97][Q:1/4=94][Q:1/4=91][Q:1/4=88][Q:1/4=84][Q:1/4=81][Q:1/4=78] | z4 [GAe]4 | %15
w: ||
 [FAd]6[K:bass] z2 |] %16
w: |
V:2
 [D,A,]2 [A,,A,]2 [D,A,]2 [A,,A,]2 | [D,A,]2 [A,,A,]2 [D,A,]2 z2 | [E,A,]2 A,,2 z [CG] z C | %3
 D,2 A,G, B,A,G,F, | D,2 A,,2 [D,A,]2 [A,,A,]2 | [D,A,]2 [A,,A,]2 [D,A,]2 [D,A,]2 | %6
 [E,A,]2 E,2 [DE]2- [E,DE]2 | A,,2 G,,2 F,,2 E,,2 | [D,,D,]2 [A,,,A,,]2 [D,,D,]2 [A,,,A,,]2 | %9
 [D,,D,]2 [D,,^D,]2 [E,,E,]2 [A,,,A,,]2 | [C,,C,]2 z G z[K:treble] GFE | [D,,D,]2 A,^G, B,A,F,E, | %12
 [D,,D,]2 [A,,,A,,]2 [E,,E,]2 [A,,,A,,]2 | [F,,F,]2 [F,,F,]2 [G,,G,]2 [E,,E,]2 | %14
 [A,,,A,,]2 A,2 [A,,,A,,]2 A,2 | D,2 A,,2 D,,2 z2 |] %16
V:3
 x8 | [FA]2 [Fd]2 z2[K:bass] [A,,A,]2 | z2 A,2 z B[CFA][EG] | A,2 z2 z4 | x8 | x8 | %6
 z2 A,2 z2 ^G,2 | A,2[K:bass] G,2 F,2 E,2 | x8 | [A,D]-[A,DF][A,=C]-[A,CF] [A,^CG]4 | %10
 z2 z d [Gc]BAG | x8 | x8 | [A,D]-[A,DA]^AA [Ec][DB][B,DG]E | [DFA]4 z2 C2 | %15
 D2[K:bass] A,2 D,2 z2 |] %16
V:4
 x8 | x6[K:bass] x2 | z4 A,2 z2 | x8 | x8 | x8 | x8 | x2[K:bass] x6 | x8 | x8 | z2 C2 z4 | x8 | %12
 x8 | x8 | x8 | x2[K:bass] x6 |] %16
V:5
 x8 | x8 | z4 E,2 [A,,A,]2 | x8 | x8 | x8 | z4 [E,^G,]2 z2 | x8 | x8 | x8 | %10
 z2 A,2 A,,2[K:treble] [A,C]2 | x8 | x8 | x8 | x8 | x8 |] %16

